X:100
T:Rosicrucian canon
Z:Jack Campin <http://www.campin.me.uk/> version 1.3 Jan 2007
C:Michael Maier
N:see Hermetic Journal no 5 (1979) pp.4-7
N:dedicated to James VI & I of Scotland and England
N:I have absolutely NO idea what this is trying to achieve
V:1 program 1 74      % archangel Gabriel
V:2 program 1 74      % archangel Raphael
V:3 program 1 74      % archangel Uriel
V:4 program 1 74      % archangel Michael
V:5 program 1 70 bass % shepherds Menaleas and Thirsis (cantus firmus)
M:none
L:1/4
Q:1/2=80
K:D minor
[V:1] f3  e d2   f2 |ed2  c/B/ c4       |B2 B2"2"||
[V:2] d3  e f2   a2-|ad' b3      a/g/ a2|b4   "3"||
[V:3] B2 FF B2   A2-|Ad  f3      e/d/ c2|f4   "4"||
[V:4] F2 B2 F F  c2 |A2  F2    A4       |d4   "1"||
[V:5] z2 B,3  B, F,2|A,2 B,2   F4       |B,4     ||


